svg/m/KI.svg

<svg width="20" height="15" viewBox="0 0 20 15" fill="none" xmlns="http://www.w3.org/2000/svg">
<g clip-path="url(#clip0_270_60880)">
<rect width="20" height="15" fill="white"/>
<path fill-rule="evenodd" clip-rule="evenodd" d="M0 0V15H20V0H0Z" fill="#E31D1C"/>
<mask id="mask0_270_60880" style="mask-type:luminance" maskUnits="userSpaceOnUse" x="0" y="0" width="20" height="15">
<path fill-rule="evenodd" clip-rule="evenodd" d="M0 0V15H20V0H0Z" fill="white"/>
</mask>
<g mask="url(#mask0_270_60880)">
<path fill-rule="evenodd" clip-rule="evenodd" d="M9.57706 10.7356L9.8632 10.1151L10.1493 10.7356L10.3192 10.0744L10.7124 10.6343L10.7605 9.95362L11.2482 10.4348L11.173 9.7566L11.7394 10.1437L11.5433 9.48969L12.1704 9.77022L11.8597 9.16147L12.5272 9.32644L12.1119 8.7825L12.7984 8.8266L12.2919 8.36494L12.9752 8.28676L12.3937 7.92224L13.052 7.72428L12.4143 7.4686L13.0264 7.15724L12.3528 7.01862L12.899 6.60385L12.2113 6.58675L12.6741 6.08191L11.9944 6.18687L12.3589 5.60819L11.709 5.83185L11.9634 5.19792L11.3642 5.53308L11.5004 4.86429L10.9712 5.30018L10.9848 4.61801L10.5426 5.14062L10.4332 4.467L10.0921 5.05954L9.8632 4.41612L9.63429 5.05954L9.29323 4.467L9.18383 5.14062L8.74159 4.61801L8.75521 5.30018L8.22599 4.86429L8.3622 5.53308L7.76302 5.19792L8.01743 5.83185L7.36754 5.60819L7.73199 6.18687L7.05228 6.08191L7.51505 6.58675L6.82737 6.60385L7.37357 7.01862L6.70003 7.15724L7.31212 7.4686L6.67435 7.72428L7.33266 7.92224L6.75117 8.28676L7.43453 8.36494L6.92801 8.8266L7.61447 8.7825L7.19919 9.32644L7.86668 9.16147L7.55599 9.77022L8.18305 9.48969L7.98695 10.1437L8.55343 9.7566L8.47821 10.4348L8.96591 9.95362L9.01399 10.6343L9.40723 10.0744L9.57706 10.7356Z" fill="#FFC84A"/>
<path fill-rule="evenodd" clip-rule="evenodd" d="M-0.495021 8.70007L1.13926 8.03682C1.37748 7.94015 1.64421 7.94132 1.88157 8.0401L4.15079 8.98444C4.40753 9.09128 4.69766 9.08358 4.94837 8.96326L6.77876 8.08485C7.04128 7.95887 7.34634 7.95663 7.61068 8.07875L9.52784 8.96442C9.78612 9.08373 10.0836 9.08446 10.3425 8.96642L12.3042 8.07181C12.5629 7.9538 12.8603 7.95449 13.1185 8.0737L15.0553 8.96782C15.3095 9.08516 15.6018 9.08775 15.8581 8.97493L17.9744 8.04307C18.2035 7.94218 18.4626 7.93315 18.6982 8.01786L20.5956 8.70007V14.9586H-0.550628L-0.495021 8.70007Z" fill="#F7FCFF"/>
<mask id="mask1_270_60880" style="mask-type:luminance" maskUnits="userSpaceOnUse" x="-1" y="7" width="22" height="8">
<path fill-rule="evenodd" clip-rule="evenodd" d="M-0.495021 8.70007L1.13926 8.03682C1.37748 7.94015 1.64421 7.94132 1.88157 8.0401L4.15079 8.98444C4.40753 9.09128 4.69766 9.08358 4.94837 8.96326L6.77876 8.08485C7.04128 7.95887 7.34634 7.95663 7.61068 8.07875L9.52784 8.96442C9.78612 9.08373 10.0836 9.08446 10.3425 8.96642L12.3042 8.07181C12.5629 7.9538 12.8603 7.95449 13.1185 8.0737L15.0553 8.96782C15.3095 9.08516 15.6018 9.08775 15.8581 8.97493L17.9744 8.04307C18.2035 7.94218 18.4626 7.93315 18.6982 8.01786L20.5956 8.70007V14.9586H-0.550628L-0.495021 8.70007Z" fill="white"/>
</mask>
<g mask="url(#mask1_270_60880)">
<path d="M-0.495021 10.1536L1.13926 9.49034C1.37748 9.39367 1.64421 9.39484 1.88157 9.49362L4.15079 10.438C4.40753 10.5448 4.69766 10.5371 4.94837 10.4168L6.77876 9.53838C7.04128 9.41239 7.34634 9.41015 7.61068 9.53227L9.52784 10.4179C9.78612 10.5373 10.0836 10.538 10.3424 10.4199L12.3042 9.52533C12.5629 9.40732 12.8603 9.40801 13.1185 9.52722L15.0553 10.4213C15.3095 10.5387 15.6018 10.5413 15.8581 10.4285L17.9744 9.49659C18.2035 9.3957 18.4626 9.38668 18.6982 9.47138L20.5956 10.1536" stroke="#015989" stroke-width="1.25"/>
<path d="M-0.495021 12.2342L1.13926 11.5709C1.37748 11.4743 1.64421 11.4754 1.88157 11.5742L4.15079 12.5186C4.40753 12.6254 4.69766 12.6177 4.94837 12.4974L6.77876 11.619C7.04128 11.493 7.34634 11.4907 7.61068 11.6129L9.52784 12.4985C9.78612 12.6178 10.0836 12.6186 10.3424 12.5005L12.3042 11.6059C12.5629 11.4879 12.8603 11.4886 13.1185 11.6078L15.0553 12.5019C15.3095 12.6193 15.6018 12.6219 15.8581 12.509L17.9744 11.5772C18.2035 11.4763 18.4626 11.4673 18.6982 11.552L20.5956 12.2342" stroke="#015989" stroke-width="1.25"/>
<path fill-rule="evenodd" clip-rule="evenodd" d="M-0.495021 13.8921L0.187269 13.6152C1.0354 13.271 1.98505 13.2752 2.83011 13.6268L4.15079 14.1764C4.40753 14.2833 4.69766 14.2756 4.94837 14.1553L5.71744 13.7862C6.65211 13.3376 7.73821 13.3297 8.67936 13.7644L9.52784 14.1564C9.78612 14.2757 10.0836 14.2765 10.3424 14.1584L11.2605 13.7397C12.1819 13.3196 13.2406 13.322 14.16 13.7465L15.0553 14.1598C15.3095 14.2772 15.6018 14.2798 15.8581 14.1669L17.0606 13.6374C17.8764 13.2782 18.7989 13.2461 19.6377 13.5477L20.5956 13.8921V15.9639H-0.380261L-0.495021 13.8921Z" fill="#015989"/>
</g>
<path fill-rule="evenodd" clip-rule="evenodd" d="M6.11252 2.13651C6.11252 2.13651 6.98247 2.13651 7.27535 2.13651C7.56824 2.13651 8.22898 1.68868 8.61116 1.83795C8.99333 1.98723 9.6367 2.46917 9.6367 2.46917C9.6367 2.46917 10.6989 1.63073 11.3324 1.63073C11.9659 1.63073 13.1087 1.53749 13.1087 1.53749C13.1087 1.53749 12.8406 2.23341 12.0865 2.35129C11.3324 2.46917 10.4302 3.0465 10.4302 3.0465C10.4302 3.0465 11.469 3.0465 11.6558 3.0465C11.8427 3.0465 12.0865 3.32825 12.0865 3.32825C12.0865 3.32825 11.5835 3.67002 11.3324 3.67002C11.0813 3.67002 10.804 3.67002 10.804 3.67002C10.804 3.67002 10.2701 4.12813 9.61061 4.03066C8.95111 3.93319 8.42196 3.32825 8.42196 3.32825C8.42196 3.32825 7.84495 3.24554 7.84495 3.14602C7.84495 3.14602 7.48941 2.9638 7.38238 3.14602C7.27535 3.32825 7.84495 2.90199 7.84495 2.90199C7.84495 2.90199 8.07332 2.68777 8.24764 2.68777C8.42196 2.68777 9.00409 3.0465 9.00409 3.0465L9.14309 2.90199L8.42196 2.35129C6.95107 2.50541 6.11252 2.13651 6.11252 2.13651Z" fill="#FFC84A"/>
</g>
</g>
<defs>
<clipPath id="clip0_270_60880">
<rect width="20" height="15" fill="white"/>
</clipPath>
</defs>
</svg>

<svg width="20" height="15" fill="none" xmlns="http://www.w3.org/2000/svg">
  <mask id="a" maskUnits="userSpaceOnUse" x="0" y="0" width="20" height="15">
    <path fill="#fff" d="M0 0h20v15H0z"/>
  </mask>
  <g mask="url(#a)">
    <path fill-rule="evenodd" clip-rule="evenodd" d="M0 0v15h20V0H0z" fill="#E31D1C"/>
    <mask id="b" maskUnits="userSpaceOnUse" x="0" y="0" width="20" height="15">
      <path fill-rule="evenodd" clip-rule="evenodd" d="M0 0v15h20V0H0z" fill="#fff"/>
    </mask>
    <g mask="url(#b)">
      <path fill-rule="evenodd" clip-rule="evenodd" d="M9.577 10.736l.286-.62.286.62.17-.662.393.56.049-.68.487.48-.075-.677.566.387-.196-.654.627.28-.31-.609.667.165-.415-.543.686.044-.506-.462.683-.078-.581-.365.658-.198-.638-.255.612-.312-.673-.138.546-.415-.688-.017.463-.505-.68.105.365-.579-.65.224.254-.634-.599.335.136-.669-.529.436.014-.682-.442.523-.11-.674-.34.593-.23-.644-.229.644-.34-.593-.11.674-.442-.523.013.682-.529-.436.136.67-.599-.336.254.634-.65-.224.365.579-.68-.105.463.505-.688.017.547.415-.674.138.612.312-.638.255.659.198-.582.365.684.078-.507.462.686-.044-.415.543.668-.165-.311.61.627-.281-.196.654.566-.387-.075.678.488-.481.048.68.393-.56.17.662z" fill="#FFC84A"/>
      <path fill-rule="evenodd" clip-rule="evenodd" d="M-.495 8.7l1.634-.663a.976.976 0 01.743.003l2.269.944c.257.107.547.1.797-.02l1.83-.88a.976.976 0 01.833-.005l1.917.885c.258.12.556.12.814.002l1.962-.894a.976.976 0 01.814.002l1.937.894c.255.117.547.12.803.007l2.116-.932a.98.98 0 01.724-.025l1.898.682v6.259H-.551L-.495 8.7z" fill="#F7FCFF"/>
      <mask id="c" maskUnits="userSpaceOnUse" x="-1" y="7" width="22" height="8">
        <path fill-rule="evenodd" clip-rule="evenodd" d="M-.495 8.7l1.634-.663a.976.976 0 01.743.003l2.269.944c.257.107.547.1.797-.02l1.83-.88a.976.976 0 01.833-.005l1.917.885c.258.12.556.12.814.002l1.962-.894a.976.976 0 01.814.002l1.937.894c.255.117.547.12.803.007l2.116-.932a.98.98 0 01.724-.025l1.898.682v6.259H-.551L-.495 8.7z" fill="#fff"/>
      </mask>
      <g mask="url(#c)">
        <path d="M-.495 10.154l1.634-.664a.976.976 0 01.743.004l2.269.944c.257.107.547.1.797-.021l1.83-.879a.976.976 0 01.833-.006l1.917.886c.258.12.556.12.814.002l1.962-.895a.976.976 0 01.814.002l1.937.894c.255.118.547.12.803.008l2.116-.932a.98.98 0 01.724-.026l1.898.683m-21.091 2.08l1.634-.663a.977.977 0 01.743.003l2.269.945a.976.976 0 00.797-.022l1.83-.878a.976.976 0 01.833-.006l1.917.886c.258.119.556.12.814.002l1.962-.895a.976.976 0 01.814.002l1.937.894c.255.117.547.12.803.007l2.116-.932a.98.98 0 01.724-.025l1.898.682" stroke="#015989" stroke-width="1.25"/>
        <path fill-rule="evenodd" clip-rule="evenodd" d="M-.495 13.892l.682-.277a3.477 3.477 0 012.643.012l1.32.55a.978.978 0 00.798-.022l.77-.369a3.476 3.476 0 012.961-.022l.849.392c.258.12.556.12.814.002l.918-.418a3.476 3.476 0 012.9.006l.895.414c.255.117.547.12.803.007l1.203-.53a3.476 3.476 0 012.577-.09l.958.345v2.072H-.38l-.115-2.072z" fill="#015989"/>
      </g>
      <path fill-rule="evenodd" clip-rule="evenodd" d="M6.113 2.137h1.162c.293 0 .954-.448 1.336-.3.382.15 1.026.632 1.026.632s1.062-.838 1.695-.838c.634 0 1.777-.094 1.777-.094s-.268.696-1.023.814c-.754.118-1.656.696-1.656.696h1.226c.187 0 .43.281.43.281s-.502.342-.754.342h-.528s-.534.458-1.193.36c-.66-.097-1.189-.702-1.189-.702s-.577-.082-.577-.182c0 0-.356-.182-.463 0-.107.182.463-.244.463-.244s.228-.214.403-.214c.174 0 .756.358.756.358l.14-.144-.722-.55c-1.47.153-2.31-.215-2.31-.215z" fill="#FFC84A"/>
    </g>
  </g>
</svg>
